X:1
T:Title
%%score ( 1 2 ) { 3 | 4 }
L:1/8
Q:1/4=105
M:9/8
K:A
V:1 treble nm="Grand Piano, Soprano"
V:2 treble 
V:3 bass nm="Choir Pad, The Redeemer Is Come"
V:4 bass 
V:1
 [CE][=C^D][^CE] [Ec]3 [CA]3 | [CE][=C^D][^CE] [=DF]3 [CE]3 | [CE]2 [EA] [DG]3 [DG]3 | .G3 z3 z3 | %4
w: By~F.~D.~Jacobs * * * *||||
 [CE][=C^D][^CE] [Ec]3 [CA]3 | [CE][=C^D][^CE] [=DF]3 [CE]3 | [CE]2 [Ec] [EB]3 [FA]3 | %7
w: |||
 [EG][FA][^DF] E6 |[M:4/4] [Ed]4 [EB]4 | [Ec]4 [EA]4 | [EA]2 [EA]2 [EG]>[EA] [Ed]>[Ec] | %11
w: ||||
 [Ec]4 [EB]4 | [Ed]4 [EB]4 | z4 A4 | [FB]2 [DF]2 [CE]>[Fd] [Ec]>[DB] | [CA]8 |] %16
w: |||||
V:2
 x9 | x9 | x9 | E-[EA][EB] [EA]6 | x9 | x9 | x9 | x9 |[M:4/4] x8 | x8 | x8 | x8 | x8 | %13
 [Ee]4 C2 F2 | x8 | x8 |] %16
V:3
 A,2 A, A,3 A,3 | A,2 A, A,3 A,3 | A,2 C B,3 B,3 | B,[K:treble]CD C6 | A,2 A,[K:bass] A,3 A,3 | %5
 A,2 A, A,3 A,3 | A,2 A, B,3 C3 | B,2 A, G,6 |[M:4/4] G,2 G,2 G,2 G,2 | A,2 A,2[K:treble] C2 C2 | %10
 C2 C2 D>C[K:bass] B,>A, | A,4 G,4 | G,2 G,2 G,2 G,2 | A,2 A,2 A,2 C2 | D2 A,2 A,>A, A,>E, | E,8 |] %16
V:4
 A,,2 A,, A,,3 A,,3 | A,,2 A,, A,,3 A,,3 | A,,2 A,, E,3 E,3 | E,2 E, A,,6 | A,,2 A,, A,,3 A,,3 | %5
 A,,2 A,, A,,3 A,,3 | z3 G,3 A,3 | z2 B,, E,6 |[M:4/4] E,2 E,2 E,2 E,2 | z4 A,2 A,2 | %10
 A,2 A,2 B,>A, G,2 | E,4 E,4 | E,2 E,2 E,2 E,2 | C,2 C,2 F,2 F,2 | D,2 D,2 E,>E, E,2 | A,,8 |] %16

